assets/svg/app/copy.svg

<svg width="16" height="16" viewBox="0 0 16 16" fill="none" xmlns="http://www.w3.org/2000/svg">
<path fill-rule="evenodd" clip-rule="evenodd" d="M10.4848 1.33331H3.21212C2.54545 1.33331 2 1.87877 2 2.54543V11.0303H3.21212V2.54543H10.4848V1.33331ZM12.303 3.75756H5.63637C4.9697 3.75756 4.42425 4.30301 4.42425 4.96968V13.4545C4.42425 14.1212 4.9697 14.6666 5.63637 14.6666H12.303C12.9697 14.6666 13.5152 14.1212 13.5152 13.4545V4.96968C13.5152 4.30301 12.9697 3.75756 12.303 3.75756ZM5.63636 13.4545H12.303V4.96968H5.63636V13.4545Z" fill="currentColor"/>
</svg>

<svg width="16" height="16" fill="none" xmlns="http://www.w3.org/2000/svg">
    <path fill-rule="evenodd" clip-rule="evenodd" d="M10.485 1.333H3.212C2.545 1.333 2 1.88 2 2.545v8.485h1.212V2.545h7.273V1.333Zm1.818 2.425H5.636c-.666 0-1.212.545-1.212 1.212v8.485c0 .666.546 1.212 1.212 1.212h6.667c.667 0 1.212-.546 1.212-1.213V4.97c0-.667-.545-1.212-1.212-1.212Zm-6.667 9.697h6.667V4.97H5.636v8.485Z" fill="currentColor"/>
</svg>
